X:1
T:Concert Gavotte (1912) 
T:Robert Vollstedt (1854 - 1919) arr. H. F. Odell (1872 - 1926)
T:Sweet Love
%%score { 1 ( 2 3 ) }
L:1/8
Q:1/4=108
M:4/4
K:C
V:1 treble nm="Mandoline"
V:2 treble-8 nm="Guitare classique"
V:3 treble-8 
V:1
"_""^Andantino con sentimento""^Mandolin & Guitar" (ed!<(!AB GAB!<)!f) |!>(! ed^cd g4-!>)! | %2
 !fermata!g4"^rit." e^dea ||"^a tempo""_" g z f z e=d^cd | (!>!^d2 e2){/e} aeae | %5
{/f} a z [G,FB] z{/f} afaf |{/e} a z [CEA] z e^dea | g z f z e=d^cd | %8
 (!>!^d2!<(! e2)"^rit."{/a} g^fg^g!<)! | b!>(!ad'c' baAB!>)! | !fermata!c4"^rit." e^dea | %11
"^a tempo" g z f z e=d^cd | (!>!^d2 e2){/e} aeae |{/f} a z [G,FB] z{/f} afaf | %14
{/e} a z [CEA] z e^dea | g z f z e=d^cd | (!>!^d2!<(! e2)"^rit."{/a} g^fg^g!<)! | %17
 b!>(!ad'c' baAB!>)! | !fermata!c4"^Più mosso.""_" e^dea || ec'ba gfc=d | c4{/f} e^dec' | %21
 b z a z !>!a!>!b!>!c'!>!d' | !>!e'4 e^def | ec'ba gfc=d | e4{/e} e'd'c'b | ae{/g} f>e edcB | %26
 A4 e^def | ec'ba gfc=d | e4{/f} e^dec' | b z a z !>!a!>!b!>!c'!>!d' | !>!e'4 e^def | ec'ba gfc=d | %32
 e4 (edba) |"^rit." (gf^GA!>(! ed^ce) |(x=G)!>)!"_"(^dG/) !fermata!z/"_""^rit." edea || %35
"^a tempo" g z f z e=d^cd | (!>!^d2 e2){/e} aeae |{/f} a z [G,FB] z{/f} afaf | %38
{/e} a z [CEA] z e^dea | g z f z e=d^cd | (!>!^d2!<(! e2)"^rit."{/a} g^fg^g!<)! | %41
 b!>(!ad'c' baAB!>)!!dacoda! | c4- c z z2 |:[K:F]"^a tempo""_""_cantabile" (d3 c AFED) | %44
{DE} (D4 C4) |!<(! (cdef b3 a)!<)! |!>(! (a3 g d4)!>)! |!<(! (e3 d BD!<)!^CD) |!>(! (A4 G4)!>)! | %49
"_string" (!>!a!>!g!<(!!>!e!>!c !>!=B!>!c!>!e>!>!d)!<)! |!>(! (c3 c A4)!>)! | %51
"^a tempo" (d3 c AFED) |{DE} (D4 C4) |!<(! (cdef b3 a)!<)! |!>(! (a3 g!>)! d!<(!gbd')!<)! | %55
"_" (f'3 f ef e'>d') | (!>!d'!>!c'!>!a"^rit."!>!f !>!c!>!=B,!>(!!>!C!>!_B) | (A6 G2!>)! |1 %58
"_" F)!<(!(CDE!<)!!>(! FGAB)!>)! :|2"_"!>(! F4-"_" F2!>)! z2!D.C.! ||O"_" c4!<(! (GABe)!<)! | %61
 (d!>(!c/B/ AB!>)! G/!<(!A/B/c/ d^d)!<)! | e/!>(!a/g/e/ c/A/G/!>)!E/!<(! (gabe')!<)! | %63
!>(! (d'c'/b/ ab!>)! g/!<(!a/b/c'/ d'g')!<)! |!>(! c'4 (d'/!>)!"_"c'/!>(!b/c'/ b/c'/d'/^d'/!>)! | %65
"_" e'4)!>(! (g3 c')!>)! |"_" c'4- !fermata!c'2 z2 |] %67
V:2
 [GBf]8- | [GBf]8- | !fermata![GBf]4 z4 || D2 [GBf]2 G,2 [GBf]2 | C2 [Gce]2 E2 [Gce]2 | %5
 D2 [GBf]2 G,2 [GBf]2 | C2 [Gce]2 E2 [Gce]2 | D2 [GBf]2 G,2 [GBf]2 | C2 [Gce]2 C2 [Gce]2 | %9
 F,2 [Adf]2 G,2 [GBf]2 | [CGce]2 [CGce]2 z4 | D2 [GBf]2 G,2 [GBf]2 | C2 [Gce]2 C2 [Gce]2 | %13
 D2 [GBf]2 G,2 [GBf]2 | C2 [Gce]2 C2 [Gce]2 | D2 [GBf]2 G,2 [GBf]2 | C2 [Gce]2 C2 [Gce]2 | %17
 F,2 [Adf]2 G,2 [GBf]2 | [CGce]2 [CGce]2 z4 || A,2 [Ace]2 A,2 [Adf]2 | A,2 [Ace]2 ^G,2 [Bde]2 | %21
 A,2 [Ace]2 F2 [Adf]2 | [E^GBe]DCB, A,2 [Ace]2 | A,2 [Ace]2 A,2 [Adf]2 | A,2 [Ace]2 [DABf]4 | %25
 [EAce]4 E,2 [^Gde]2 | A,2 [Ace]2 z4 | A,2 [Ace]2 A,2 [Adf]2 | A,2 [Ace]2 ^G,2 [Bde]2 | %29
 A,2 [Ace]2 F2 [Adf]2 | [E^GBe]DCB, A,2 [Ace]2 | A,2 [Ace]2 A,2 [Adf]2 | A,2 [Ace]2 F,2 [Adf]2 | %33
 D2 [Adf]2 [G,GBf]2 [^Ae]2 | [G,GBf]2- [G,GBf]-[G,GBf]/ z/ z4 || D2 [GBf]2 G,2 [GBf]2 | %36
 C2 [Gce]2 E2 [Gce]2 | D2 [GBf]2 G,2 [GBf]2 | C2 [Gce]2 C2 [Gce]2 | D2 [GBf]2 G,2 [GBf]2 | %40
 C2 [Gce]2 C2 [Gce]2 | F,2 [Adf]2 G,2 [GBf]2 | [CGce]2 !>!G,2 !>!C z z2 |: %43
[K:F] z2 [Acf]2 [Acf]2 [Acf]2 | z2 A2 c2 f2 | z2 [Acf]2 [Acf]2 [Acf]2 | z2 [Bdg]2 [Bdg]2 [Bdg]2 | %47
 x8 | z2 [Bce]2 [Bce]2 [Bce]2 | x8 | z2 [Acf]2 [Acf]2 [Acf]2 | x8 | z2 A2 c2 f2 | %53
 F2 [Acf]2 D2 [Ac^f]2 | z2 [Bdg]2 [Bdg]2 [Bdg]2 | z2 [^Gdf]2 [Gdf]2 [Gdf]2 | C2 [Acf]2 [Acf] z z2 | %57
 C2 [Bce]2 [Bce]2 [Bce]2 |1 [FAcf]2 z2 z4 :|2 [FAcf]DCA, F,2 z2 || C2 [Gce]2 !>![G,GBf]4 | %61
 [G,Gce]4 !>![G,GBf]4 | [CGce]4 z4 | z8 | z8 | z8 | z4 !fermata!z2 z2 |] %67
V:3
 x8 | x8 | x8 || x8 | x8 | x8 | x8 | x8 | x8 | x8 | x8 | x8 | x8 | x8 | x8 | x8 | x8 | x8 | x8 || %19
 x8 | x8 | x8 | x8 | x8 | x8 | x8 | x8 | x8 | x8 | x8 | x8 | x8 | x8 | x8 | x8 || x8 | x8 | x8 | %38
 x8 | x8 | x8 | x8 | x8 |:[K:F] F,4 z4 | F,4 z4 | F,4 z4 | B,4 z4 | x8 | C4 z4 | x8 | F,4 z4 | x8 | %52
 F,4 z4 | x8 | G,4 z4 | =B,4 z4 | x8 | x8 |1 x8 :|2 x8 || x8 | x8 | x8 | x8 | x8 | x8 | x8 |] %67

